packages/components/src/components/icon/common/ic-assets-indices.svg

<svg width="24" height="24" viewBox="0 0 24 24" fill="none" xmlns="http://www.w3.org/2000/svg">
<g clip-path="url(#clip0_6676:12185)">
<path d="M12 3C15.9328 3 19.2764 5.52251 20.5012 9.03784L20.3792 9.03706C22.3895 9.03706 24 9.93667 24 11.992C24.0182 14.4186 22.288 15.1162 19.6407 15.113C16.5402 14.7914 13.4908 13.9231 10.6227 12.5512C9.19884 11.9863 7.74851 11.5337 6.28905 11.198C4.09366 10.7273 2.81473 10.7447 1.94259 11.5195C1.69068 11.7366 1.52892 12.0872 1.50351 12.474C1.47806 12.8612 1.59218 13.2418 1.79485 13.4878C2.08866 13.8205 2.69485 14.1017 3.3006 14.3118C3.14359 13.7232 3.04557 13.1095 3.01251 12.4787L3.04046 12.4703C3.45609 12.3773 3.93949 12.3608 4.51069 12.4102L4.5 12C4.5 13.067 4.7228 14.0819 5.12441 15.0008L6.34167 15.0011C6.16573 14.2547 6.05357 13.4632 6.01499 12.6412L6.28905 12.698C6.70805 12.7944 7.1263 12.9004 7.54338 13.0159C7.60136 13.7188 7.71962 14.3834 7.88702 15.0019L9.17089 15.0016C9.1131 14.5113 9.06907 14.0016 9.04018 13.4766C9.57215 13.651 10.0992 13.8435 10.6227 14.0512L10.5821 14.038C10.6091 14.3671 10.6425 14.6893 10.6821 15.0028L12.8505 15.0019C15.0497 15.8305 17.331 16.3734 19.6407 16.613C19.671 16.613 19.7012 16.6127 19.7313 16.6122C18.1596 19.2396 15.2854 21 12 21C8.66107 21 5.7468 19.1818 4.19332 16.4814L4.38981 16.5241C3.39026 16.3223 1.53917 15.7253 0.768476 14.852C0.22526 14.1944 -0.0535011 13.265 0.0085255 12.3211C0.0705886 11.3766 0.467354 10.5167 1.08112 9.98774C2.39754 8.8181 3.94596 8.79705 6.55206 9.35584C8.08226 9.70773 9.5936 10.1794 11.1182 10.7859C13.8951 12.1125 16.8056 12.9413 19.7028 13.245C21.4421 13.245 22.5061 12.816 22.5 12.0008C22.5 11.4768 21.8956 11.0581 20.9388 10.941C20.9655 11.1727 20.9838 11.4067 20.993 11.643C20.6217 11.7115 20.1886 11.745 19.7028 11.745C19.6323 11.7376 19.5618 11.7299 19.4913 11.7219L19.5 12C19.5 10.9336 19.2774 9.9192 18.8762 9.00069L17.6587 9.00043C17.8445 9.78916 17.9591 10.6283 17.9909 11.5006C17.482 11.4152 16.9751 11.31 16.4696 11.189C16.4211 10.4111 16.2968 9.67765 16.1134 8.99957L14.8293 8.99994C14.8963 9.56892 14.9448 10.1642 14.9726 10.7791C14.4576 10.6274 13.9469 10.4557 13.4391 10.2678C13.4107 9.82994 13.3696 9.407 13.3181 8.9987H10.6819L10.6695 9.11112C9.29661 8.58791 7.932 8.17318 6.55206 7.85584C5.65419 7.66332 4.88186 7.53963 4.20131 7.50802C5.75472 4.81329 8.6656 3 12 3ZM13.0681 16.5032H10.9319C11.038 17.005 11.1619 17.4702 11.3017 17.8896C11.4928 18.4629 11.7038 18.9171 11.9086 19.2235L12 19.35L12.0914 19.2235C12.2621 18.9682 12.437 18.6102 12.6012 18.1662L12.6983 17.8896C12.8381 17.4702 12.962 17.005 13.0681 16.5032ZM9.40167 16.5017L8.42787 16.502C8.84689 17.4077 9.38349 18.149 9.98625 18.6679C9.75542 18.0431 9.55807 17.3124 9.40167 16.5017ZM15.5721 16.502L14.5983 16.5017C14.4419 17.3124 14.2446 18.0431 14.0148 18.6684C14.6165 18.149 15.1531 17.4077 15.5721 16.502ZM6.80307 16.501L6.0008 16.5018C6.44006 17.0862 6.96274 17.6044 7.55115 18.0386C7.26752 17.5691 7.01627 17.0536 6.80307 16.501ZM17.1969 16.501C17.037 16.9155 16.8557 17.3091 16.6553 17.6784L16.4495 18.0375L16.7937 17.7686C17.243 17.3945 17.6478 16.9693 17.9992 16.5018L17.1969 16.501ZM7.54851 5.961L7.37706 6.09379C6.85881 6.50001 6.39537 6.97296 5.99967 7.49971L6.8025 7.5005C6.96249 7.08558 7.14392 6.6916 7.34453 6.32197L7.54851 5.961ZM16.4489 5.96137L16.4857 6.02274C16.7547 6.47659 16.9935 6.97153 17.1975 7.5005L18.0003 7.49971C17.5608 6.91466 17.0378 6.39597 16.4489 5.96137ZM9.98523 5.3316C9.3814 5.85369 8.84561 6.5946 8.42717 7.49951L9.40138 7.49984C9.55783 6.68853 9.75528 5.95728 9.98523 5.3316ZM14.0137 5.33208L14.0743 5.49797C14.2789 6.08564 14.4558 6.7594 14.5986 7.49984L15.5728 7.49951C15.1537 6.59312 14.6168 5.85127 14.0137 5.33208ZM12 4.6485L11.9086 4.77649C11.7038 5.08292 11.4928 5.53706 11.3017 6.11038C11.1618 6.5302 11.0378 6.99597 10.9316 7.49831H13.0684C12.9622 6.99597 12.8382 6.5302 12.6983 6.11038C12.5072 5.53706 12.2962 5.08292 12.0914 4.77649L12 4.6485Z" fill="#333333"/>
</g>
<defs>
<clipPath id="clip0_6676:12185">
<rect width="24" height="24" fill="white"/>
</clipPath>
</defs>
</svg>

<svg width="24" height="24" fill="none" xmlns="http://www.w3.org/2000/svg"><g clip-path="url(#a)"><path d="M12 3a9.004 9.004 0 0 1 8.501 6.038h-.122c2.01 0 3.621.899 3.621 2.954.018 2.427-1.712 3.124-4.36 3.121-3.1-.322-6.15-1.19-9.017-2.562a29.993 29.993 0 0 0-4.334-1.353c-2.195-.47-3.474-.453-4.346.322-.252.217-.414.567-.44.954-.025.387.09.768.292 1.014.294.332.9.614 1.506.824a8.92 8.92 0 0 1-.288-1.833l.027-.009c.416-.093.9-.11 1.47-.06L4.5 12c0 1.067.223 2.082.624 3l1.218.001a12.944 12.944 0 0 1-.327-2.36l.274.057a29.4 29.4 0 0 1 1.254.318c.058.703.177 1.367.344 1.986h1.284c-.058-.49-.102-1-.13-1.525a27.64 27.64 0 0 1 1.582.574l-.04-.013c.026.33.06.651.1.965l2.168-.001c2.199.829 4.48 1.371 6.79 1.611h.09A8.999 8.999 0 0 1 12 21a8.997 8.997 0 0 1-7.807-4.519l.197.043c-1-.202-2.85-.799-3.622-1.672-.543-.658-.822-1.587-.76-2.53.063-.945.46-1.805 1.073-2.334 1.317-1.17 2.865-1.19 5.471-.632 1.53.352 3.042.823 4.566 1.43 2.777 1.327 5.688 2.155 8.585 2.459 1.74 0 2.803-.429 2.797-1.244 0-.524-.604-.943-1.561-1.06.026.232.045.466.054.702a7.208 7.208 0 0 1-1.29.102l-.212-.023.009.278c0-1.066-.223-2.08-.624-3H17.66c.186.79.3 1.628.332 2.5a22.612 22.612 0 0 1-1.521-.311 11.015 11.015 0 0 0-.357-2.19H14.83c.067.57.116 1.165.144 1.78a23.793 23.793 0 0 1-1.534-.511c-.028-.438-.07-.861-.12-1.27h-2.637l-.013.113a31.075 31.075 0 0 0-4.117-1.255c-.898-.193-1.67-.316-2.35-.348A8.991 8.991 0 0 1 12 3Zm1.068 13.503h-2.136c.106.502.23.967.37 1.387.19.573.402 1.027.607 1.334l.091.126.091-.127c.171-.255.346-.613.51-1.057l.097-.276c.14-.42.264-.885.37-1.387Zm-3.666-.001h-.974c.419.906.955 1.647 1.558 2.166a13.932 13.932 0 0 1-.584-2.166Zm6.17 0h-.974c-.156.81-.353 1.541-.583 2.166.601-.519 1.138-1.26 1.557-2.166Zm-8.769-.001h-.802c.44.585.962 1.103 1.55 1.538a9.792 9.792 0 0 1-.748-1.538Zm10.394 0c-.16.415-.341.808-.542 1.177l-.206.36.345-.27c.449-.373.854-.799 1.205-1.266l-.802-.001ZM7.549 5.961l-.172.133C6.86 6.5 6.395 6.973 6 7.5h.803c.16-.414.34-.808.542-1.178l.204-.361Zm8.9 0 .037.062c.269.454.508.949.712 1.478L18 7.5A7.544 7.544 0 0 0 16.45 5.96Zm-6.464-.63c-.604.523-1.14 1.264-1.558 2.169h.974c.157-.811.354-1.543.584-2.168Zm4.029.001.06.166c.205.588.382 1.261.525 2.002h.974c-.42-.907-.956-1.649-1.56-2.168ZM12 4.65l-.091.127c-.205.307-.416.761-.607 1.334-.14.42-.264.886-.37 1.388h2.136a12.77 12.77 0 0 0-.37-1.388c-.19-.573-.402-1.027-.607-1.334L12 4.65Z" fill="var(--fill-color1)"/></g><defs><clipPath id="a"><path fill="#fff" d="M0 0h24v24H0z"/></clipPath></defs></svg>
